images/youtube-icon-dark.svg

<svg width="50" height="37" viewBox="0 0 50 37" fill="none" xmlns="http://www.w3.org/2000/svg">
<path d="M39.6156 0.77124H10.3844C4.64923 0.77124 0 5.42047 0 11.1556V25.7681C0 31.5033 4.64923 36.1525 10.3844 36.1525H39.6156C45.3508 36.1525 50 31.5033 50 25.7681V11.1556C50 5.42047 45.3508 0.77124 39.6156 0.77124ZM32.5928 19.1728L18.9203 25.6937C18.556 25.8675 18.1352 25.6019 18.1352 25.1983V11.7489C18.1352 11.3395 18.5671 11.0743 18.9322 11.2593L32.6046 18.1878C33.0111 18.3938 33.0041 18.9767 32.5928 19.1728Z" fill="#363739"/>
</svg>

<svg xmlns="http://www.w3.org/2000/svg" width="50" height="37" fill="none" xmlns:v="https://vecta.io/nano"><path d="M39.616.771H10.384C4.649.771 0 5.42 0 11.156v14.613c0 5.735 4.649 10.384 10.384 10.384h29.231C45.351 36.153 50 31.503 50 25.768V11.156C50 5.42 45.351.771 39.616.771zm-7.023 18.402L18.92 25.694a.55.55 0 0 1-.785-.495V11.749a.55.55 0 0 1 .797-.49l13.672 6.929a.55.55 0 0 1-.012.985z" fill="#363739"/></svg>
